X:1
T:Exultet coelum
T:Exultet coelum
T:André Vierendeels (12/09/10)
C:André Vierendeels
C:(12/09/10)
%%score [ 1 2 3 4 ]
L:1/8
Q:1/4=120
M:2/4
K:D
V:1 treble nm="Soprano" snm="S"
V:2 treble nm="Alto" snm="A"
V:3 treble-8 nm="Tenor" snm="T"
V:4 bass nm="Bass" snm="B"
V:1
 E4 |[M:2/2] E4 F4 | G4 E4 | G4 A4 | !fermata!B4 B4 | B4 c4 | d4 B4 | B4 A4 | !fermata!G4 B4 | %9
w: Ex-|ul- tet|coe- lum|lau- di-|bus, re-|sul- tet|ter- ra|gau- di-|is, A-|
 B4 B4 | G4 F4 | E4 E4 | !fermata!^D4 F4 | G4 B4 | A4 G4 | F4 F4 | !fermata!E8 |] %17
w: po- sto-|lo- rum|glo- ri-|am sa-|cra _|nunt so-|len- ni-|a.|
V:2
 C4 |[M:2/2] B,4 D4 | D4 E4 | C4 F4 | !fermata!D4 E4 | D4 E4 | F4 D4 | D4 F4 | !fermata!D4 G4 | %9
w: Ex-|ul- tet|coe- lum|_ di-|bus, re-|sul- tet|ter- ra|gau- di-|is, A-|
 G4 F4 | E4 D4 | B,2 =C2 D2 ^C2 |"^-natural" !fermata!B,4 D4 | D2 C2 D2 G2 | E4 E4 | D4 D4 | %16
w: po- sto-|lo- rum|glo- * ri- *|am sa-|ca _ ca- *|nunt so-|len- ni-|
 !fermata!A,8 |] %17
w: a.|
V:3
 A4 |[M:2/2] ^G4 A4 | B4 A4 | A4 A4 | !fermata!G4 G4 | F4 A4 | A4 G4 | F4 A4 | !fermata!B4 d4 | %9
w: Ex-|ul- tet|coe- lum|lau- di-|bus, re-|sul- tet|ter- ra|gau- di-|is, A-|
 B4 d4 | A4 A4 | G4 A4 | !fermata!F4 A4 | G4 F2 Bd | c4 B4 | B4 A2 B2 | !fermata!c8 |] %17
w: po- sto-|lo- rum|glo- ri-|am sa-|cra- _ _ _|nunt so-|len- ni- *|a.|
V:4
 A,,4 |[M:2/2] E,4 D,4 | G,4 C,4 | E,4 D,4 | !fermata!G,,4 E,4 | B,,4 A,,4 | D,4 G,,4 | B,,4 D,4 | %8
w: Ex-|ul- tet|coe- lum|au- di-|bus, re-|sul- tet|ter- ra|gau- di-|
 !fermata!G,4 G,4 | E,4 B,,4 | C,4 D,4 | E,4 A,,4 | !fermata!B,,4 D,4 | E,4 B,,2 G,,2 | A,,4 E,4 | %15
w: is, A-|po- sto-|lo- rum|glo- ri-|am sa-|cra ca- *|nunt so-|
 B,,4 D,2 B,,2 | !fermata!A,,8 |] %17
w: len- ni- *|a.|

